X:1
T:Petit papa Nol
C:Chant de Nol, fichier abc : Bernard Loffet
L:1/8
Q:230
M:2/2
K:C
 z6[G2G,2] | [B2C,2][B2C,2] [c2F,2][^c2F,2] | [B2C,2]C,2 C,2[BC,]B | [^c2A,2][c2A,2] [c2F,2][c2F,2] | \
 [B2C,2]C,2 C,2[B2C,2] | [c2F,2]F,c [cF,]c[BF,]A | [G2G,2]G,2 G,2[GG,]G | [B2C,2]C,2 [cA,]c[BA,]c | \
 [^c2D,2]D,2 G,2[G2G,2] | [B2C,2][B2C,2] [c2F,2][^c2F,2] | [B2C,2]C,2 C,2[BC,]B | \
 [^c2A,2][c2A,2] [c2F,2][c2F,2] | [B2C,2]C,2 C,2[B2C,2] | [c2F,2]F,c [cF,]c[BF,]A | \
 [G2G,2]G,2 G,2[GG,]G | [B2C,2]C,2 [cF,]c[^cF,]c | [B2C,2]C,2 C,2C,2 | [AF,]A[AF,]A [A2F,2][AF,]B | \
 [c2F,2]F,A [A2C,2][G2C,2] | [cA,]c[cA,]c [c2A,2][BA,]c | [^c2G,2]G,2 G,2G,2 | [B^D,]B[B^D,]B [B2D,2][BD,]B | \
 [^c2_B,2]_B,c [=c2B,2][_B2B,2] | [B2^D,2][B^D,]B [^c2=D,2][c=D,]c | [B2G,2]G,2 G,4 | \
Z:Created with TablEdit http://www.tabledit.com/ by Bernard Loffet
